trackball-cup/trackball-cup.svg

<?xml version="1.0" encoding="UTF-8" standalone="no"?>
<svg
   width="40mm"
   height="40mm"
   viewBox="-20 -20 40 40"
   version="1.1"
   id="svg6"
   sodipodi:docname="trackball-cup.svg"
   inkscape:version="1.2.2 (732a01da63, 2022-12-09)"
   xmlns:inkscape="http://www.inkscape.org/namespaces/inkscape"
   xmlns:sodipodi="http://sodipodi.sourceforge.net/DTD/sodipodi-0.dtd"
   xmlns="http://www.w3.org/2000/svg"
   xmlns:svg="http://www.w3.org/2000/svg">
  <defs
     id="defs10" />
  <sodipodi:namedview
     id="namedview8"
     pagecolor="#ffffff"
     bordercolor="#000000"
     borderopacity="0.25"
     inkscape:showpageshadow="2"
     inkscape:pageopacity="0.0"
     inkscape:pagecheckerboard="0"
     inkscape:deskcolor="#d1d1d1"
     inkscape:document-units="mm"
     showgrid="false"
     inkscape:zoom="5.4834896"
     inkscape:cx="76.046465"
     inkscape:cy="76.411196"
     inkscape:window-width="1920"
     inkscape:window-height="1009"
     inkscape:window-x="-8"
     inkscape:window-y="-8"
     inkscape:window-maximized="1"
     inkscape:current-layer="svg6" />
  <title
     id="title2">OpenSCAD Model</title>
  <path
     d="m -19.0524,18.9497 0.0024,0.1003 0.1003,0.0024 H 18.9497 L 19.05,19.05 19.0524,18.9497 V -18.9497 L 19.05,-19.05 18.9497,-19.0524 h -37.8994 l -0.1003,0.0024 -0.0024,0.1003 z M -17.5,16 l 0.0018,-0.0736 0.0054,-0.0734 0.009,-0.0731 0.0126,-0.0725 0.0162,-0.0719 0.0196,-0.0709 0.0231,-0.0699 0.0265,-0.0687 0.0298,-0.0673 0.0331,-0.0658 0.0363,-0.0641 0.0394,-0.0622 0.0424,-0.0601 0.0453,-0.0581 0.0481,-0.0557 0.0507,-0.0534 0.0534,-0.0507 0.0557,-0.0481 0.0581,-0.0453 0.0601,-0.0424 0.0622,-0.0394 0.0641,-0.0363 0.0658,-0.0331 0.0673,-0.0298 0.0687,-0.0265 0.0699,-0.0231 0.0709,-0.0196 0.0719,-0.0162 0.0725,-0.0126 0.0731,-0.009 0.0734,-0.0054 L -16,14.5 l 0.0736,0.0018 0.0734,0.0054 0.0731,0.009 0.0725,0.0126 0.0719,0.0162 0.0709,0.0196 0.0699,0.0231 0.0687,0.0265 0.0673,0.0298 0.0658,0.0331 0.0641,0.0363 0.0622,0.0394 0.0601,0.0424 0.0581,0.0453 0.0557,0.0481 0.0534,0.0507 0.0507,0.0534 0.0481,0.0557 0.0453,0.0581 0.0424,0.0601 0.0394,0.0622 0.0363,0.0641 0.0331,0.0658 0.0298,0.0673 0.0265,0.0687 0.0231,0.0699 0.0196,0.0709 0.0162,0.0719 0.0126,0.0725 0.009,0.0731 0.0054,0.0734 L -14.5,16 l -0.0018,0.0736 -0.0054,0.0734 -0.009,0.0731 -0.0126,0.0725 -0.0162,0.0719 -0.0196,0.0709 -0.0231,0.0699 -0.0265,0.0687 -0.0298,0.0673 -0.0331,0.0658 -0.0363,0.0641 -0.0394,0.0622 -0.0424,0.0601 -0.0453,0.0581 -0.0481,0.0557 -0.0507,0.0534 -0.0534,0.0507 -0.0557,0.0481 -0.0581,0.0453 -0.0601,0.0424 -0.0622,0.0394 -0.0641,0.0363 -0.0658,0.0331 -0.0673,0.0298 -0.0687,0.0265 -0.0699,0.0231 -0.0709,0.0196 -0.0719,0.0162 -0.0725,0.0126 -0.0731,0.009 -0.0734,0.0054 L -16,17.5 l -0.0736,-0.0018 -0.0734,-0.0054 -0.0731,-0.009 -0.0725,-0.0126 -0.0719,-0.0162 -0.0709,-0.0196 -0.0699,-0.0231 -0.0687,-0.0265 -0.0673,-0.0298 -0.0658,-0.0331 -0.0641,-0.0363 -0.0622,-0.0394 -0.0601,-0.0424 -0.0581,-0.0453 -0.0557,-0.0481 -0.0534,-0.0507 -0.0507,-0.0534 -0.0481,-0.0557 -0.0453,-0.0581 -0.0424,-0.0601 -0.0394,-0.0622 -0.0363,-0.0641 -0.0331,-0.0658 -0.0298,-0.0673 -0.0265,-0.0687 -0.0231,-0.0699 -0.0196,-0.0709 -0.0162,-0.0719 -0.0126,-0.0725 -0.009,-0.0731 -0.0054,-0.0734 z m 0,-32 0.0018,-0.0736 0.0054,-0.0734 0.009,-0.0731 0.0126,-0.0725 0.0162,-0.0719 0.0196,-0.0709 0.0231,-0.0699 0.0265,-0.0687 0.0298,-0.0673 0.0331,-0.0658 0.0363,-0.0641 0.0394,-0.0622 0.0424,-0.0601 0.0453,-0.0581 0.0481,-0.0557 0.0507,-0.0534 0.0534,-0.0507 0.0557,-0.0481 0.0581,-0.0453 0.0601,-0.0424 0.0622,-0.0394 0.0641,-0.0363 0.0658,-0.0331 0.0673,-0.0298 0.0687,-0.0265 0.0699,-0.0231 0.0709,-0.0196 0.0719,-0.0162 0.0725,-0.0126 0.0731,-0.009 0.0734,-0.0054 L -16,-17.5 l 0.0736,0.0018 0.0734,0.0054 0.0731,0.009 0.0725,0.0126 0.0719,0.0162 0.0709,0.0196 0.0699,0.0231 0.0687,0.0265 0.0673,0.0298 0.0658,0.0331 0.0641,0.0363 0.0622,0.0394 0.0601,0.0424 0.0581,0.0453 0.0557,0.0481 0.0534,0.0507 0.0507,0.0534 0.0481,0.0557 0.0453,0.0581 0.0424,0.0601 0.0394,0.0622 0.0363,0.0641 0.0331,0.0658 0.0298,0.0673 0.0265,0.0687 0.0231,0.0699 0.0196,0.0709 0.0162,0.0719 0.0126,0.0725 0.009,0.0731 0.0054,0.0734 0.0018,0.0736 -0.0018,0.0736 -0.0054,0.0734 -0.009,0.0731 -0.0126,0.0725 -0.0162,0.0719 -0.0196,0.0709 -0.0231,0.0699 -0.0265,0.0687 -0.0298,0.0673 -0.0331,0.0658 -0.0363,0.0641 -0.0394,0.0622 -0.0424,0.0601 -0.0453,0.0581 -0.0481,0.0557 -0.0507,0.0534 -0.0534,0.0507 -0.0557,0.0481 -0.0581,0.0453 -0.0601,0.0424 -0.0622,0.0394 -0.0641,0.0363 -0.0658,0.0331 -0.0673,0.0298 -0.0687,0.0265 -0.0699,0.0231 -0.0709,0.0196 -0.0719,0.0162 -0.0725,0.0126 -0.0731,0.009 -0.0734,0.0054 L -16,-14.5 l -0.0736,-0.0018 -0.0734,-0.0054 -0.0731,-0.009 -0.0725,-0.0126 -0.0719,-0.0162 -0.0709,-0.0196 -0.0699,-0.0231 -0.0687,-0.0265 -0.0673,-0.0298 -0.0658,-0.0331 -0.0641,-0.0363 -0.0622,-0.0394 -0.0601,-0.0424 -0.0581,-0.0453 -0.0557,-0.0481 -0.0534,-0.0507 -0.0507,-0.0534 -0.0481,-0.0557 -0.0453,-0.0581 -0.0424,-0.0601 -0.0394,-0.0622 -0.0363,-0.0641 -0.0331,-0.0658 -0.0298,-0.0673 -0.0265,-0.0687 -0.0231,-0.0699 -0.0196,-0.0709 -0.0162,-0.0719 -0.0126,-0.0725 -0.009,-0.0731 -0.0054,-0.0734 z m 32,32 0.0018,-0.0736 0.0054,-0.0734 0.009,-0.0731 0.0126,-0.0725 0.0162,-0.0719 0.0196,-0.0709 0.0231,-0.0699 0.0265,-0.0687 0.0298,-0.0673 0.0331,-0.0658 0.0363,-0.0641 0.0394,-0.0622 0.0424,-0.0601 0.0453,-0.0581 0.0481,-0.0557 0.0507,-0.0534 0.0534,-0.0507 0.0557,-0.0481 0.0581,-0.0453 0.0601,-0.0424 0.0622,-0.0394 0.0641,-0.0363 0.0658,-0.0331 0.0673,-0.0298 0.0687,-0.0265 0.0699,-0.0231 0.0709,-0.0196 0.0719,-0.0162 0.0725,-0.0126 0.0731,-0.009 0.0734,-0.0054 L 16,14.5 l 0.0736,0.0018 0.0734,0.0054 0.0731,0.009 0.0725,0.0126 0.0719,0.0162 0.0709,0.0196 0.0699,0.0231 0.0687,0.0265 0.0673,0.0298 0.0658,0.0331 0.0641,0.0363 0.0622,0.0394 0.0601,0.0424 0.0581,0.0453 0.0557,0.0481 0.0534,0.0507 0.0507,0.0534 0.0481,0.0557 0.0453,0.0581 0.0424,0.0601 0.0394,0.0622 0.0363,0.0641 0.0331,0.0658 0.0298,0.0673 0.0265,0.0687 0.0231,0.0699 0.0196,0.0709 0.0162,0.0719 0.0126,0.0725 0.009,0.0731 0.0054,0.0734 L 17.5,16 l -0.0018,0.0736 -0.0054,0.0734 -0.009,0.0731 -0.0126,0.0725 -0.0162,0.0719 -0.0196,0.0709 -0.0231,0.0699 -0.0265,0.0687 -0.0298,0.0673 -0.0331,0.0658 -0.0363,0.0641 -0.0394,0.0622 -0.0424,0.0601 -0.0453,0.0581 -0.0481,0.0557 -0.0507,0.0534 -0.0534,0.0507 -0.0557,0.0481 -0.0581,0.0453 -0.0601,0.0424 -0.0622,0.0394 -0.0641,0.0363 -0.0658,0.0331 -0.0673,0.0298 -0.0687,0.0265 -0.0699,0.0231 -0.0709,0.0196 -0.0719,0.0162 -0.0725,0.0126 -0.0731,0.009 -0.0734,0.0054 L 16,17.5 15.9264,17.4982 15.853,17.4928 15.7799,17.4838 15.7074,17.4712 15.6355,17.455 15.5646,17.4354 15.4947,17.4123 15.426,17.3858 15.3587,17.356 15.2929,17.3229 15.2288,17.2866 15.1666,17.2472 15.1065,17.2048 15.0484,17.1595 14.9927,17.1114 14.9393,17.0607 14.8886,17.0073 14.8405,16.9516 14.7952,16.8935 14.7528,16.8334 14.7134,16.7712 14.6771,16.7071 14.644,16.6413 14.6142,16.574 14.5877,16.5053 14.5646,16.4354 14.545,16.3645 14.5288,16.2926 14.5162,16.2201 14.5072,16.147 14.5018,16.0736 Z m 0,-32 0.0018,-0.0736 0.0054,-0.0734 0.009,-0.0731 0.0126,-0.0725 0.0162,-0.0719 0.0196,-0.0709 0.0231,-0.0699 0.0265,-0.0687 0.0298,-0.0673 0.0331,-0.0658 0.0363,-0.0641 0.0394,-0.0622 0.0424,-0.0601 0.0453,-0.0581 0.0481,-0.0557 0.0507,-0.0534 0.0534,-0.0507 0.0557,-0.0481 0.0581,-0.0453 0.0601,-0.0424 0.0622,-0.0394 0.0641,-0.0363 0.0658,-0.0331 0.0673,-0.0298 0.0687,-0.0265 0.0699,-0.0231 0.0709,-0.0196 0.0719,-0.0162 0.0725,-0.0126 0.0731,-0.009 0.0734,-0.0054 L 16,-17.5 l 0.0736,0.0018 0.0734,0.0054 0.0731,0.009 0.0725,0.0126 0.0719,0.0162 0.0709,0.0196 0.0699,0.0231 0.0687,0.0265 0.0673,0.0298 0.0658,0.0331 0.0641,0.0363 0.0622,0.0394 0.0601,0.0424 0.0581,0.0453 0.0557,0.0481 0.0534,0.0507 0.0507,0.0534 0.0481,0.0557 0.0453,0.0581 0.0424,0.0601 0.0394,0.0622 0.0363,0.0641 0.0331,0.0658 0.0298,0.0673 0.0265,0.0687 0.0231,0.0699 0.0196,0.0709 0.0162,0.0719 0.0126,0.0725 0.009,0.0731 0.0054,0.0734 L 17.5,-16 l -0.0018,0.0736 -0.0054,0.0734 -0.009,0.0731 -0.0126,0.0725 -0.0162,0.0719 -0.0196,0.0709 -0.0231,0.0699 -0.0265,0.0687 -0.0298,0.0673 -0.0331,0.0658 -0.0363,0.0641 -0.0394,0.0622 -0.0424,0.0601 -0.0453,0.0581 -0.0481,0.0557 -0.0507,0.0534 -0.0534,0.0507 -0.0557,0.0481 -0.0581,0.0453 -0.0601,0.0424 -0.0622,0.0394 -0.0641,0.0363 -0.0658,0.0331 -0.0673,0.0298 -0.0687,0.0265 -0.0699,0.0231 -0.0709,0.0196 -0.0719,0.0162 -0.0725,0.0126 -0.0731,0.009 -0.0734,0.0054 L 16,-14.5 l -0.0736,-0.0018 -0.0734,-0.0054 -0.0731,-0.009 -0.0725,-0.0126 -0.0719,-0.0162 -0.0709,-0.0196 -0.0699,-0.0231 -0.0687,-0.0265 -0.0673,-0.0298 -0.0658,-0.0331 -0.0641,-0.0363 -0.0622,-0.0394 -0.0601,-0.0424 -0.0581,-0.0453 -0.0557,-0.0481 -0.0534,-0.0507 -0.0507,-0.0534 -0.0481,-0.0557 -0.0453,-0.0581 -0.0424,-0.0601 -0.0394,-0.0622 -0.0363,-0.0641 -0.0331,-0.0658 -0.0298,-0.0673 -0.0265,-0.0687 -0.0231,-0.0699 -0.0196,-0.0709 -0.0162,-0.0719 -0.0126,-0.0725 -0.009,-0.0731 -0.0054,-0.0734 z"
     stroke="#000000"
     fill="lightgray"
     stroke-width="0.5"
     id="path4"
     style="fill:none;stroke-width:0.1;stroke-dasharray:none"
     sodipodi:nodetypes="ccccccccccccccccccccccccccccccccccccccccccccccccccccccccccccccccccccccccccccccccccccccccccccccccccccccccccccccccccccccccccccccccccccccccccccccccccccccccccccccccccccccccccccccccccccccccccccccccccccccccccccccccccccccccccccccccccccccccccccccccccccccccccccccccccccccccccccccccccccccccccccccccccccccccccccccccccccccccccccccccccccccccccccccccccccccccccccccccccccccccccccccccccccccccccccccccccccccccccccccccccccccccccccccccccccccccccccccccccccccccccccccccccccccccccccccccccccccccccccccccccccccccccccccccccccccccccccccccccccccccccccccccc" />
  <g
     style="fill:none;fill-opacity:0;stroke:#000000;stroke-width:100000;stroke-linecap:round;stroke-linejoin:round;stroke-dasharray:none;stroke-opacity:1"
     id="g674"
     transform="matrix(1e-6,0,0,1e-6,-6,-10.3994)">
    <path
       d="m 1450000,100000 h 9100000"
       id="path658"
       style="fill:none;stroke:#000000;stroke-width:100000;stroke-dasharray:none;stroke-opacity:1" />
    <path
       d="M 1450000,18388000 V 100000"
       id="path660"
       style="fill:none;stroke:#000000;stroke-width:100000;stroke-dasharray:none;stroke-opacity:1" />
    <path
       d="M 10550000,18388000 H 1450000"
       id="path662"
       style="fill:none;stroke:#000000;stroke-width:100000;stroke-dasharray:none;stroke-opacity:1" />
    <path
       d="M 10550000,100000 V 18388000"
       id="path664"
       style="fill:none;stroke:#000000;stroke-width:100000;stroke-dasharray:none;stroke-opacity:1" />
    <g
       id="g666"
       style="fill:none;stroke:#000000;stroke-width:100000;stroke-dasharray:none;stroke-opacity:1" />
    <g
       id="g668"
       style="fill:none;stroke:#000000;stroke-width:100000;stroke-dasharray:none;stroke-opacity:1" />
    <g
       id="g670"
       style="fill:none;stroke:#000000;stroke-width:100000;stroke-dasharray:none;stroke-opacity:1" />
    <g
       id="g672"
       style="fill:none;stroke:#000000;stroke-width:100000;stroke-dasharray:none;stroke-opacity:1" />
  </g>
</svg>

<?xml version="1.0" encoding="UTF-8" standalone="no"?>
<svg
   width="40mm"
   height="40mm"
   viewBox="-20 -20 40 40"
   version="1.1"
   id="svg6"
   sodipodi:docname="trackball-cup.svg"
   inkscape:version="1.2 (dc2aedaf03, 2022-05-15)"
   xmlns:inkscape="http://www.inkscape.org/namespaces/inkscape"
   xmlns:sodipodi="http://sodipodi.sourceforge.net/DTD/sodipodi-0.dtd"
   xmlns="http://www.w3.org/2000/svg"
   xmlns:svg="http://www.w3.org/2000/svg">
  <defs
     id="defs10" />
  <sodipodi:namedview
     id="namedview8"
     pagecolor="#ffffff"
     bordercolor="#000000"
     borderopacity="0.25"
     inkscape:showpageshadow="2"
     inkscape:pageopacity="0.0"
     inkscape:pagecheckerboard="0"
     inkscape:deskcolor="#d1d1d1"
     inkscape:document-units="mm"
     showgrid="false"
     inkscape:zoom="5.4834896"
     inkscape:cx="75.590551"
     inkscape:cy="75.681734"
     inkscape:window-width="1920"
     inkscape:window-height="1009"
     inkscape:window-x="1912"
     inkscape:window-y="-8"
     inkscape:window-maximized="1"
     inkscape:current-layer="svg6" />
  <title
     id="title2">OpenSCAD Model</title>
  <path
     d=" M -19.0524,18.9497 L -19.05,19.05 L -18.9497,19.0524 L 18.9497,19.0524 L 19.05,19.05 L 19.0524,18.9497  L 19.0524,-18.9497 L 19.05,-19.05 L 18.9497,-19.0524 L -18.9497,-19.0524 L -19.05,-19.05 L -19.0524,-18.9497  z M -17.5,16 L -17.4982,15.9264 L -17.4928,15.853 L -17.4838,15.7799 L -17.4712,15.7074 L -17.455,15.6355  L -17.4354,15.5646 L -17.4123,15.4947 L -17.3858,15.426 L -17.356,15.3587 L -17.3229,15.2929 L -17.2866,15.2288  L -17.2472,15.1666 L -17.2048,15.1065 L -17.1595,15.0484 L -17.1114,14.9927 L -17.0607,14.9393 L -17.0073,14.8886  L -16.9516,14.8405 L -16.8935,14.7952 L -16.8334,14.7528 L -16.7712,14.7134 L -16.7071,14.6771 L -16.6413,14.644  L -16.574,14.6142 L -16.5053,14.5877 L -16.4354,14.5646 L -16.3645,14.545 L -16.2926,14.5288 L -16.2201,14.5162  L -16.147,14.5072 L -16.0736,14.5018 L -16,14.5 L -15.9264,14.5018 L -15.853,14.5072 L -15.7799,14.5162  L -15.7074,14.5288 L -15.6355,14.545 L -15.5646,14.5646 L -15.4947,14.5877 L -15.426,14.6142 L -15.3587,14.644  L -15.2929,14.6771 L -15.2288,14.7134 L -15.1666,14.7528 L -15.1065,14.7952 L -15.0484,14.8405 L -14.9927,14.8886  L -14.9393,14.9393 L -14.8886,14.9927 L -14.8405,15.0484 L -14.7952,15.1065 L -14.7528,15.1666 L -14.7134,15.2288  L -14.6771,15.2929 L -14.644,15.3587 L -14.6142,15.426 L -14.5877,15.4947 L -14.5646,15.5646 L -14.545,15.6355  L -14.5288,15.7074 L -14.5162,15.7799 L -14.5072,15.853 L -14.5018,15.9264 L -14.5,16 L -14.5018,16.0736  L -14.5072,16.147 L -14.5162,16.2201 L -14.5288,16.2926 L -14.545,16.3645 L -14.5646,16.4354 L -14.5877,16.5053  L -14.6142,16.574 L -14.644,16.6413 L -14.6771,16.7071 L -14.7134,16.7712 L -14.7528,16.8334 L -14.7952,16.8935  L -14.8405,16.9516 L -14.8886,17.0073 L -14.9393,17.0607 L -14.9927,17.1114 L -15.0484,17.1595 L -15.1065,17.2048  L -15.1666,17.2472 L -15.2288,17.2866 L -15.2929,17.3229 L -15.3587,17.356 L -15.426,17.3858 L -15.4947,17.4123  L -15.5646,17.4354 L -15.6355,17.455 L -15.7074,17.4712 L -15.7799,17.4838 L -15.853,17.4928 L -15.9264,17.4982  L -16,17.5 L -16.0736,17.4982 L -16.147,17.4928 L -16.2201,17.4838 L -16.2926,17.4712 L -16.3645,17.455  L -16.4354,17.4354 L -16.5053,17.4123 L -16.574,17.3858 L -16.6413,17.356 L -16.7071,17.3229 L -16.7712,17.2866  L -16.8334,17.2472 L -16.8935,17.2048 L -16.9516,17.1595 L -17.0073,17.1114 L -17.0607,17.0607 L -17.1114,17.0073  L -17.1595,16.9516 L -17.2048,16.8935 L -17.2472,16.8334 L -17.2866,16.7712 L -17.3229,16.7071 L -17.356,16.6413  L -17.3858,16.574 L -17.4123,16.5053 L -17.4354,16.4354 L -17.455,16.3645 L -17.4712,16.2926 L -17.4838,16.2201  L -17.4928,16.147 L -17.4982,16.0736 z M -17.5,-16 L -17.4982,-16.0736 L -17.4928,-16.147 L -17.4838,-16.2201 L -17.4712,-16.2926 L -17.455,-16.3645  L -17.4354,-16.4354 L -17.4123,-16.5053 L -17.3858,-16.574 L -17.356,-16.6413 L -17.3229,-16.7071 L -17.2866,-16.7712  L -17.2472,-16.8334 L -17.2048,-16.8935 L -17.1595,-16.9516 L -17.1114,-17.0073 L -17.0607,-17.0607 L -17.0073,-17.1114  L -16.9516,-17.1595 L -16.8935,-17.2048 L -16.8334,-17.2472 L -16.7712,-17.2866 L -16.7071,-17.3229 L -16.6413,-17.356  L -16.574,-17.3858 L -16.5053,-17.4123 L -16.4354,-17.4354 L -16.3645,-17.455 L -16.2926,-17.4712 L -16.2201,-17.4838  L -16.147,-17.4928 L -16.0736,-17.4982 L -16,-17.5 L -15.9264,-17.4982 L -15.853,-17.4928 L -15.7799,-17.4838  L -15.7074,-17.4712 L -15.6355,-17.455 L -15.5646,-17.4354 L -15.4947,-17.4123 L -15.426,-17.3858 L -15.3587,-17.356  L -15.2929,-17.3229 L -15.2288,-17.2866 L -15.1666,-17.2472 L -15.1065,-17.2048 L -15.0484,-17.1595 L -14.9927,-17.1114  L -14.9393,-17.0607 L -14.8886,-17.0073 L -14.8405,-16.9516 L -14.7952,-16.8935 L -14.7528,-16.8334 L -14.7134,-16.7712  L -14.6771,-16.7071 L -14.644,-16.6413 L -14.6142,-16.574 L -14.5877,-16.5053 L -14.5646,-16.4354 L -14.545,-16.3645  L -14.5288,-16.2926 L -14.5162,-16.2201 L -14.5072,-16.147 L -14.5018,-16.0736 L -14.5,-16 L -14.5018,-15.9264  L -14.5072,-15.853 L -14.5162,-15.7799 L -14.5288,-15.7074 L -14.545,-15.6355 L -14.5646,-15.5646 L -14.5877,-15.4947  L -14.6142,-15.426 L -14.644,-15.3587 L -14.6771,-15.2929 L -14.7134,-15.2288 L -14.7528,-15.1666 L -14.7952,-15.1065  L -14.8405,-15.0484 L -14.8886,-14.9927 L -14.9393,-14.9393 L -14.9927,-14.8886 L -15.0484,-14.8405 L -15.1065,-14.7952  L -15.1666,-14.7528 L -15.2288,-14.7134 L -15.2929,-14.6771 L -15.3587,-14.644 L -15.426,-14.6142 L -15.4947,-14.5877  L -15.5646,-14.5646 L -15.6355,-14.545 L -15.7074,-14.5288 L -15.7799,-14.5162 L -15.853,-14.5072 L -15.9264,-14.5018  L -16,-14.5 L -16.0736,-14.5018 L -16.147,-14.5072 L -16.2201,-14.5162 L -16.2926,-14.5288 L -16.3645,-14.545  L -16.4354,-14.5646 L -16.5053,-14.5877 L -16.574,-14.6142 L -16.6413,-14.644 L -16.7071,-14.6771 L -16.7712,-14.7134  L -16.8334,-14.7528 L -16.8935,-14.7952 L -16.9516,-14.8405 L -17.0073,-14.8886 L -17.0607,-14.9393 L -17.1114,-14.9927  L -17.1595,-15.0484 L -17.2048,-15.1065 L -17.2472,-15.1666 L -17.2866,-15.2288 L -17.3229,-15.2929 L -17.356,-15.3587  L -17.3858,-15.426 L -17.4123,-15.4947 L -17.4354,-15.5646 L -17.455,-15.6355 L -17.4712,-15.7074 L -17.4838,-15.7799  L -17.4928,-15.853 L -17.4982,-15.9264 z M -9.75,11.05 L -9.75,-11.05 L 9.75,-11.05 L 9.75,11.05 z M 14.5,16 L 14.5018,15.9264 L 14.5072,15.853 L 14.5162,15.7799 L 14.5288,15.7074 L 14.545,15.6355  L 14.5646,15.5646 L 14.5877,15.4947 L 14.6142,15.426 L 14.644,15.3587 L 14.6771,15.2929 L 14.7134,15.2288  L 14.7528,15.1666 L 14.7952,15.1065 L 14.8405,15.0484 L 14.8886,14.9927 L 14.9393,14.9393 L 14.9927,14.8886  L 15.0484,14.8405 L 15.1065,14.7952 L 15.1666,14.7528 L 15.2288,14.7134 L 15.2929,14.6771 L 15.3587,14.644  L 15.426,14.6142 L 15.4947,14.5877 L 15.5646,14.5646 L 15.6355,14.545 L 15.7074,14.5288 L 15.7799,14.5162  L 15.853,14.5072 L 15.9264,14.5018 L 16,14.5 L 16.0736,14.5018 L 16.147,14.5072 L 16.2201,14.5162  L 16.2926,14.5288 L 16.3645,14.545 L 16.4354,14.5646 L 16.5053,14.5877 L 16.574,14.6142 L 16.6413,14.644  L 16.7071,14.6771 L 16.7712,14.7134 L 16.8334,14.7528 L 16.8935,14.7952 L 16.9516,14.8405 L 17.0073,14.8886  L 17.0607,14.9393 L 17.1114,14.9927 L 17.1595,15.0484 L 17.2048,15.1065 L 17.2472,15.1666 L 17.2866,15.2288  L 17.3229,15.2929 L 17.356,15.3587 L 17.3858,15.426 L 17.4123,15.4947 L 17.4354,15.5646 L 17.455,15.6355  L 17.4712,15.7074 L 17.4838,15.7799 L 17.4928,15.853 L 17.4982,15.9264 L 17.5,16 L 17.4982,16.0736  L 17.4928,16.147 L 17.4838,16.2201 L 17.4712,16.2926 L 17.455,16.3645 L 17.4354,16.4354 L 17.4123,16.5053  L 17.3858,16.574 L 17.356,16.6413 L 17.3229,16.7071 L 17.2866,16.7712 L 17.2472,16.8334 L 17.2048,16.8935  L 17.1595,16.9516 L 17.1114,17.0073 L 17.0607,17.0607 L 17.0073,17.1114 L 16.9516,17.1595 L 16.8935,17.2048  L 16.8334,17.2472 L 16.7712,17.2866 L 16.7071,17.3229 L 16.6413,17.356 L 16.574,17.3858 L 16.5053,17.4123  L 16.4354,17.4354 L 16.3645,17.455 L 16.2926,17.4712 L 16.2201,17.4838 L 16.147,17.4928 L 16.0736,17.4982  L 16,17.5 L 15.9264,17.4982 L 15.853,17.4928 L 15.7799,17.4838 L 15.7074,17.4712 L 15.6355,17.455  L 15.5646,17.4354 L 15.4947,17.4123 L 15.426,17.3858 L 15.3587,17.356 L 15.2929,17.3229 L 15.2288,17.2866  L 15.1666,17.2472 L 15.1065,17.2048 L 15.0484,17.1595 L 14.9927,17.1114 L 14.9393,17.0607 L 14.8886,17.0073  L 14.8405,16.9516 L 14.7952,16.8935 L 14.7528,16.8334 L 14.7134,16.7712 L 14.6771,16.7071 L 14.644,16.6413  L 14.6142,16.574 L 14.5877,16.5053 L 14.5646,16.4354 L 14.545,16.3645 L 14.5288,16.2926 L 14.5162,16.2201  L 14.5072,16.147 L 14.5018,16.0736 z M 14.5,-16 L 14.5018,-16.0736 L 14.5072,-16.147 L 14.5162,-16.2201 L 14.5288,-16.2926 L 14.545,-16.3645  L 14.5646,-16.4354 L 14.5877,-16.5053 L 14.6142,-16.574 L 14.644,-16.6413 L 14.6771,-16.7071 L 14.7134,-16.7712  L 14.7528,-16.8334 L 14.7952,-16.8935 L 14.8405,-16.9516 L 14.8886,-17.0073 L 14.9393,-17.0607 L 14.9927,-17.1114  L 15.0484,-17.1595 L 15.1065,-17.2048 L 15.1666,-17.2472 L 15.2288,-17.2866 L 15.2929,-17.3229 L 15.3587,-17.356  L 15.426,-17.3858 L 15.4947,-17.4123 L 15.5646,-17.4354 L 15.6355,-17.455 L 15.7074,-17.4712 L 15.7799,-17.4838  L 15.853,-17.4928 L 15.9264,-17.4982 L 16,-17.5 L 16.0736,-17.4982 L 16.147,-17.4928 L 16.2201,-17.4838  L 16.2926,-17.4712 L 16.3645,-17.455 L 16.4354,-17.4354 L 16.5053,-17.4123 L 16.574,-17.3858 L 16.6413,-17.356  L 16.7071,-17.3229 L 16.7712,-17.2866 L 16.8334,-17.2472 L 16.8935,-17.2048 L 16.9516,-17.1595 L 17.0073,-17.1114  L 17.0607,-17.0607 L 17.1114,-17.0073 L 17.1595,-16.9516 L 17.2048,-16.8935 L 17.2472,-16.8334 L 17.2866,-16.7712  L 17.3229,-16.7071 L 17.356,-16.6413 L 17.3858,-16.574 L 17.4123,-16.5053 L 17.4354,-16.4354 L 17.455,-16.3645  L 17.4712,-16.2926 L 17.4838,-16.2201 L 17.4928,-16.147 L 17.4982,-16.0736 L 17.5,-16 L 17.4982,-15.9264  L 17.4928,-15.853 L 17.4838,-15.7799 L 17.4712,-15.7074 L 17.455,-15.6355 L 17.4354,-15.5646 L 17.4123,-15.4947  L 17.3858,-15.426 L 17.356,-15.3587 L 17.3229,-15.2929 L 17.2866,-15.2288 L 17.2472,-15.1666 L 17.2048,-15.1065  L 17.1595,-15.0484 L 17.1114,-14.9927 L 17.0607,-14.9393 L 17.0073,-14.8886 L 16.9516,-14.8405 L 16.8935,-14.7952  L 16.8334,-14.7528 L 16.7712,-14.7134 L 16.7071,-14.6771 L 16.6413,-14.644 L 16.574,-14.6142 L 16.5053,-14.5877  L 16.4354,-14.5646 L 16.3645,-14.545 L 16.2926,-14.5288 L 16.2201,-14.5162 L 16.147,-14.5072 L 16.0736,-14.5018  L 16,-14.5 L 15.9264,-14.5018 L 15.853,-14.5072 L 15.7799,-14.5162 L 15.7074,-14.5288 L 15.6355,-14.545  L 15.5646,-14.5646 L 15.4947,-14.5877 L 15.426,-14.6142 L 15.3587,-14.644 L 15.2929,-14.6771 L 15.2288,-14.7134  L 15.1666,-14.7528 L 15.1065,-14.7952 L 15.0484,-14.8405 L 14.9927,-14.8886 L 14.9393,-14.9393 L 14.8886,-14.9927  L 14.8405,-15.0484 L 14.7952,-15.1065 L 14.7528,-15.1666 L 14.7134,-15.2288 L 14.6771,-15.2929 L 14.644,-15.3587  L 14.6142,-15.426 L 14.5877,-15.4947 L 14.5646,-15.5646 L 14.545,-15.6355 L 14.5288,-15.7074 L 14.5162,-15.7799  L 14.5072,-15.853 L 14.5018,-15.9264 z "
     stroke="black"
     fill="lightgray"
     stroke-width="0.5"
     id="path4"
     style="fill:none;stroke-width:0.2;stroke-dasharray:none" />
</svg>
